!!!OTL: WOLLT IHR WISSEN
!!!ARE: Europa, Mitteleuropa, Deutschland, Rheinland
!!!SCT: K2239
!!!YEM: Copyright 1995, estate of Helmut Schaffrath.
**kern
*ICvox
*Ivox
*M3/4
*k[f#]
*G:
{8g
8b
=1
4dd
4dd
8ee
8dd
=2
4b
4g}
{8g
8g
=3
4cc
4a
4f#
=4
2g}
{4g
=5
2dd
8ee
8dd
=6
4b
4g}
{12g
12g
12g
=7
4cc
4a
4f#
=8
2g}
==
!!!AGN: Kinder - Lied, Reigen, Tanz, Nachahmungs - Spiel
!!!ONB: ESAC (Essen Associative Code) Database: KINDER
!!!AMT: simple triple
!!!AIN: vox
!!!EED: Helmut Schaffrath
!!!EEV: 1.0
*-
